web/packages/design/src/ResourceIcon/assets/grammarly.svg

<svg width="72" height="72" viewBox="0 0 72 72" fill="none" xmlns="http://www.w3.org/2000/svg">
<g clip-path="url(#clip0_15942_7557)">
<path d="M0 36.0037C0 16.3103 16.1157 0.350586 36.0017 0.350586C55.8875 0.350586 72 16.3103 72 36.0037C72 53.2329 59.6662 67.6042 43.2616 70.9314C40.9186 71.4074 38.4901 71.6538 36.0116 71.6538H0V36.0037Z" fill="#027E6F"/>
<path d="M60.9118 32.6266H44.6892L40.8689 39.1801H54.2459C52.1497 50.5779 39.3503 58.3381 26.5591 51.7747C23.8086 50.3647 21.5689 48.1848 20.1218 45.4609C12.7633 31.5869 22.8156 17.6288 36.0808 17.6288C41.5499 17.6288 46.4752 20.0006 49.8582 23.7608L53.2862 17.8801C48.4028 13.3017 41.6619 10.6357 34.3115 11.1481C21.7976 12.0026 11.6517 22.2749 11.0426 34.6795C10.3483 48.9219 21.8443 60.7215 36.0723 60.7215C50.3005 60.7215 61.1371 49.583 61.1371 35.8976C61.1371 34.7852 61.0538 33.6943 60.9118 32.6266Z" fill="white"/>
</g>
<defs>
<clipPath id="clip0_15942_7557">
<rect width="72" height="72.001" fill="white" transform="translate(0 0.000488281)"/>
</clipPath>
</defs>
</svg>

<svg xmlns="http://www.w3.org/2000/svg" width="72" height="72" fill="none" viewBox="0 0 72 72"><g clip-path="url(#clip0_15942_7557)"><path fill="#027e6f" d="M0 36.004C0 16.31 16.116.35 36.002.35S72 16.31 72 36.004c0 17.229-12.334 31.6-28.738 34.927a36.4 36.4 0 0 1-7.25.723H0z"/><path fill="#fff" d="M60.912 32.627H44.689l-3.82 6.553h13.377C52.15 50.578 39.35 58.338 26.559 51.775c-2.75-1.41-4.99-3.59-6.437-6.314-7.359-13.874 2.694-27.832 15.959-27.832a18.5 18.5 0 0 1 13.777 6.132l3.428-5.88a25.07 25.07 0 0 0-18.974-6.733c-12.514.855-22.66 11.127-23.27 23.531-.694 14.243 10.802 26.042 25.03 26.042s25.065-11.138 25.065-24.823c0-1.113-.083-2.204-.225-3.271"/></g><defs><clipPath id="clip0_15942_7557"><path fill="#fff" d="M0 0h72v72.001H0z"/></clipPath></defs></svg>
